X:181
T: Schn herzlieb (2-85) S. 251
N: P0956
O: Lothringen
S: PINCK, Louis: Verklingende Weisen, Bd 2, Metz 1928]
R: Liebe, Treueversprechen, Hochzeit]
M: 2/4
L: 1/8
K: G
AGA | _B2A2(3GAB | A3
AGA | _B2A2(3GAB | A3
GGG | d2d2_ed | c
_BAB | c_BdcBA | G3

@@@ Tune index: 7731
